X:1
T:The goat island reel
C:D. Hunter (1998)
R:Reel
K:G
M:C|
Q:1/4=160
% partie A
ed |: "G" B2dB A2BA | G3G GEDE | G3A GEDE | G2BG "D" A2ed
    | "G" B2dB "D/F#" A2BA | "Em" G3G GEDE
    | "C" G2AG gedB |1 "D" dBAB "G" G2ed :|2 "D" dBAB "G" G2Bd
% partie B
   |: "Em" e2dB e2dB | efgf e2dB | "D" d2BA BdBA | edBd A2 (3def
    | "C/A" gedB dBAB | G2GG GEDE
    | "C" G2AG gedB |1 "D" dBAB "G" G2Bd :|2 "D" dBAB "G" G4 |]
